X:5852
T:Scottiche - Natacha (A. Floutard)
O:england
C:Repertori 33
M:2/4
L:1/16
K:G
BcBG GDGB|A2G2 A2A2|BcBG GDGB|A2G2 A4:|\
|:BGDG E4|FAAF G2D2|BGDG EGEG|FAAF G4:|
|:B2G2 A2A2|B2G2 A4:|\
|:cGEG B4|AcBA B2G2|cGEG BGEG|FAAF G4:|
|:d2B2 A2A2|d2B2 A4:|\
|:ecGc d4|cedc B2G2|ecGc dBGB|AcBA G4:|


